X:1
T:Flower song waltz
T:Flower song waltz
T:Ja's. J. Freeman
T:Credit: Library of Congress, Music Division - https://www.loc.gov/resource/sm1879.16258.0/?sp=2
T:Credit: Library of Congress, Music Division - https://www.loc.gov/resource/sm1879.16258.0/?sp=2
C:Ja's. J. Freeman
Z:Credit: Library of Congress, Music Division - https://www.loc.gov/resource/sm1879.16258.0/?sp=2
%%score { ( 1 3 ) | 2 }
L:1/8
Q:1/4=92
M:3/4
K:F
V:1 treble nm="Piano" snm="Pno."
V:3 treble 
V:2 bass 
V:1
"^Tempo di Valse"!mf! !+!A2 | (!1!B2 !4!a2 !3!g2) | (!>!!+!!1![Bd]4 !2!e2) | (!4!g2 !3!f2 !+!d2) | %4
 !+!!2![Ac]4 !+!A2 | (!+!!1![EA]2 !3!c2 !2!B2) | (!>!!+!!1![EG]4 !3!B2) | !1!!4![^Gd]6 | %8
 (!+!!2![Ac]4 A2) | (B2 a2 g2) | ([Bd]4 e2) | (g2 f2 A2) | (!>!!4
+
!e4 !3!d2) | %13
 (!1!!2![Ac]2 !+!E2 A2) | !>!!2!A4 !1!G2 | !+!F3 !1!F !+!F2 | %16
"_cresc." .!+!F.!1!A.!2!c!+!f!2!c'!+!a |!f!!8va(! !1!b2 !4!a'2 !3!g'2 | ([bd']4 e'2) | %19
 (g'2 f'2 d'2) | [ac']4 a2 | [ea]2 c'2 b2 | ([eg]4 b2) | !>![^gd']6 | (!>![ac']4 a2) | %25
 (b2 a'2 g'2) | (!>![bd']4 e'2) | (g'2 f'2 a2) |"_cresc." (!>!e'4 d'2) | ([ac']2 e2 a2) | %30
 (!>!a4 g2)"_marcato" | [Af]3 [Af] [Af]2 | [Af]4!8va)!!fine! ||[K:Bb]!mf! (AB) | %34
 !2!d2 !1!d2 !+!d2 | !4!d3 !3!c!2!B!1!A | (!>!!2!A4 G2) | !+!F4 F2 | !+!F3 !+!F!1!G!2!A | %39
 !>!!3!B4 !2!B2 | !>!!3!c3 !2!B!1!A!2!B | !+!c4 !1!^c>!2!d |!<(! !3!d!2!d!1!d!+!d!1!d!+!d!<)! | %43
 !>!!4!d3 !3!c!2!B!1!A |!>(! (!>!!1!A4 G2)!>)! | !>!!4!c3 !3!B!2!A!1!G | !+!F3 !1!G!2!A!3!B | %47
 (!>!!+!!4![Fd]4 !+!!3![Ec]2) | !>!!+!!3![DB]3 [DB] [DB]2 |"_cresc." !3!B!+!d!1!fb!3!d'!3!b | %50
!f!!8va(! !2!d'2 !1!d'2 !+!d'2 | d'3 c'ba | a4 g2 | f4 f2 | f3 fga | b4 b2 | c'3 bab | c'4 ^c'>d' | %58
"_cresc." d'dd'dd'd | d'3 c'ba | a4 g2 | c'3 bag | f3 gab | !>![fd']4 [ec']2 | %64
 !>![db]3!<(! [db]!<)! [db]2 |!ff! [db]4!8va)!!D.C.! |] %66
V:2
 z2 | C,2 [B,CE]2 [B,CE]2 | C,2 [B,CE]2 [B,CE]2 | F,2 [A,CF]2 [A,CF]2 | F,2 [A,CF]2 [A,CF]2 | %5
 C,2 [B,CE]2 [B,CE]2 | C,2 [B,CE]2 [B,CE]2 | F,2 [^G,=B,D]2 [G,B,D]2 | F,2 [A,CF]2 [A,CF]2 | %9
 C,2 [B,CE]2 [B,CE]2 | C,2 [B,CE]2 [B,CE]2 | D,2 [F,A,D]2 [F,A,D]2 | B,,2 [G,B,D]2 [G,B,D]2 | %13
 C,2 [F,A,C]2 [F,A,C]2 | C,2 [E,G,B,]2 [E,G,B,]2 | F,2 [A,C]2 [A,C]2 | [F,A,C]4 z2 | %17
 C,2 [B,CE]2 [B,CE]2 | C,2 [B,CE]2 [B,CE]2 | F,2 [A,CF]2 [A,CF]2 | F,2 [A,CF]2 [A,CF]2 | %21
 C,2 [B,CE]2 [B,CE]2 | C,2 [B,CE]2 [B,CE]2 | F,2 [^G,=B,D]2 [G,B,D]2 | F,2 [A,CF]2 [A,CF]2 | %25
 C,2 [B,CE]2 [B,CE]2 | C,2 [B,CE]2 [B,CE]2 | D,2 [F,A,D]2 [F,A,D]2 | D,2 [F,A,D]2 [F,A,D]2 | %29
 C,2 [F,A,C]2 [F,A,C]2 | C,2 [E,G,B,]2 [E,G,B,]2 | !>![F,A,C]2 !>!!+!C,2 !>!!2!A,,2 | !4!F,,4 || %33
[K:Bb] z2 | B,,2 [F,B,D]2 [F,B,D]2 | ^F,2 [B,D]2 [B,D]2 | E,2 [G,B,E]2 [G,B,E]2 | %37
 B,,2 [F,B,D]2 [F,B,D]2 | A,,2 [A,CE]2 [A,CE]2 | G,,2 [G,B,D]2 [G,B,D]2 | C,2 [B,C=E]2 [B,CE]2 | %41
 F,2 [A,C_E]2 [A,CE]2 | B,,2 [F,B,D]2 [F,B,D]2 | ^F,2 [B,D]2 [B,D]2 | E,2 [G,B,E]2 [G,B,E]2 | %45
 C,2 [B,C=E]2 [B,CE]2 | B,,2 [F,B,D]2 [F,B,D]2 | F,2 [A,CE]2 [A,CE]2 | %48
"^marcato." B,,2 [D,F,B,]2 [D,F,B,]2 | [D,F,B,]4 z2 | B,,2 [F,B,D]2 [F,B,D]2 | ^F,2 [B,D]2 [B,D]2 | %52
 E,2 [G,B,E]2 [G,B,E]2 | B,,2 [F,B,D]2 [F,B,D]2 | A,,2 [A,CE]2 [A,CE]2 | G,,2 [G,B,D]2 [G,B,D]2 | %56
 C,2 [B,C=E]2 [B,CE]2 | F,2 [A,CE]2 [A,CE]2 | B,,2 [F,B,D]2 [F,B,D]2 | ^F,2 [B,D]2 [B,D]2 | %60
 E,2 [G,B,E]2 [G,B,E]2 | C,2 [B,C=E]2 [B,CE]2 | B,,2 [F,B,D]2 [F,B,D]2 | F,2 [A,C_E]2 [A,CE]2 | %64
 !>!!1!!+![B,D]!+!F,!1!D,!3!B,,!+!F,,!1!D,, | !3!B,,,4 |] %66
V:3
 x2 | x6 | x6 | x6 | x6 | x6 | x6 | x6 | x6 | x6 | x6 | x6 | G6 | x6 | x6 | x6 | x6 |!8va(! x6 | %18
 x6 | x6 | x6 | x6 | x6 | x6 | x6 | x6 | x6 | x6 | g6 | x6 | x6 | x6 | x4!8va)! ||[K:Bb] x2 | x6 | %35
 x6 | x6 | x6 | x6 | x6 | x6 | x6 | x6 | x6 | x6 | x6 | x6 | x6 | x6 | x6 |!8va(! x6 | x6 | x6 | %53
 x6 | x6 | x6 | x6 | x6 | x6 | x6 | x6 | x6 | x6 | x6 | x6 | x4!8va)! |] %66

